X: 376
T:Genevieve's
N: page 136
N: heptatonic
R: Waltz
M:3/4
L:1/4
K:A major
%
E|:"A"c3/2d/ c|"E"B A G|"F#m"A3/2B/ c|"C#m"E2 E|\
"D"F A d|"A"c E c|"B"c3/2B/ A|"E"B2 E |
"A"c3/2d/ c|"E"B A G|"F#m"A3/2B/ c|"C#m"E2 E|\
"D"F A d|"A"c E c|"E"B3/2A/ G|[1 "A"A2 E:|[2 "A"A2 e||
"D"f3/2f/ f|f g a|"A"e2 d|c3/2B/ A|\
"D"d3/2e/ d|"A"c B A|"F#m"F G A|"E"B2 e|
"D"f3/2f/ f|f g a|"A"e2 d|"F#m"c3/2B/ A|\
"D"d3/2e/ d|"A"c B A|"D"F A G|"A"A2 e||
"D"f3/2f/ f|f g a|"A"e2 d|"F#m"c3/2B/ A|\
"D"d3/2e/ {fg}a|"A"e c A|"F#m"F G A|"E"B2 E|
"A"c3/2d/ c|"E"B A G|"F#m"A3/2B/ c|"C#m"E2 E|\
"D"F A d|"A"c E c|"E"B3/2A/ G|"A"A3|]
%%scale 0.8
%%newpage
